Newaita-dark/.DP/22/youtube-indicator-light-sync5.svg

<svg xmlns="http://www.w3.org/2000/svg" xmlns:xlink="http://www.w3.org/1999/xlink" width="22px" height="22px" viewBox="0 0 22 22" version="1.1">
<g id="surface1">
<path style=" stroke:none;fill-rule:nonzero;fill:rgb(93.333334%,93.333334%,93.333334%);fill-opacity:1;" d="M 16.890625 12.617188 C 16.761719 12.542969 16.609375 12.519531 16.457031 12.558594 C 16.417969 12.570312 16.382812 12.585938 16.351562 12.601562 C 15.609375 12.828125 14.949219 13.324219 14.53125 14.046875 C 14.113281 14.769531 14.015625 15.589844 14.1875 16.34375 C 14.191406 16.382812 14.199219 16.421875 14.207031 16.457031 C 14.289062 16.761719 14.597656 16.941406 14.902344 16.863281 C 15.207031 16.78125 15.386719 16.46875 15.304688 16.164062 C 15.296875 16.128906 15.28125 16.09375 15.265625 16.058594 C 15.167969 15.582031 15.238281 15.070312 15.503906 14.609375 C 15.769531 14.144531 16.179688 13.828125 16.644531 13.675781 C 16.679688 13.675781 16.714844 13.667969 16.753906 13.660156 C 17.058594 13.578125 17.234375 13.265625 17.15625 12.960938 C 17.113281 12.808594 17.015625 12.6875 16.890625 12.617188 Z M 16.890625 12.617188 "/>
<path style=" stroke:none;fill-rule:nonzero;fill:rgb(93.333334%,93.333334%,93.333334%);fill-opacity:1;" d="M 17.675781 18.652344 C 17.800781 18.726562 17.953125 18.75 18.105469 18.710938 C 18.144531 18.699219 18.179688 18.6875 18.214844 18.667969 C 18.953125 18.441406 19.617188 17.945312 20.03125 17.222656 C 20.449219 16.5 20.550781 15.679688 20.375 14.925781 C 20.371094 14.886719 20.367188 14.847656 20.355469 14.8125 C 20.277344 14.507812 19.964844 14.328125 19.660156 14.410156 C 19.359375 14.492188 19.175781 14.800781 19.257812 15.105469 C 19.269531 15.140625 19.28125 15.175781 19.296875 15.210938 C 19.398438 15.683594 19.328125 16.199219 19.058594 16.660156 C 18.792969 17.125 18.382812 17.441406 17.921875 17.59375 C 17.886719 17.59375 17.847656 17.601562 17.8125 17.613281 C 17.507812 17.691406 17.328125 18.003906 17.410156 18.308594 C 17.449219 18.460938 17.550781 18.582031 17.675781 18.652344 Z M 17.675781 18.652344 "/>
<path style=" stroke:none;fill-rule:nonzero;fill:rgb(93.333334%,93.333334%,93.333334%);fill-opacity:1;" d="M 10.890625 4 C 10.890625 4 4.933594 4 3.445312 4.390625 C 2.644531 4.609375 1.988281 5.269531 1.765625 6.082031 C 1.375 7.574219 1.375 10.660156 1.375 10.660156 C 1.375 10.660156 1.375 13.765625 1.765625 15.238281 C 1.988281 16.050781 2.628906 16.695312 3.445312 16.914062 C 4.949219 17.320312 10.890625 17.320312 10.890625 17.320312 C 10.890625 17.320312 12.363281 17.320312 14.03125 17.273438 C 13.785156 16.78125 13.644531 16.226562 13.644531 15.636719 C 13.644531 13.621094 15.265625 11.996094 17.28125 11.996094 C 18.523438 11.996094 19.617188 12.613281 20.273438 13.558594 C 20.402344 12.15625 20.402344 10.675781 20.402344 10.675781 C 20.402344 10.675781 20.417969 7.574219 20.011719 6.082031 C 19.792969 5.269531 19.148438 4.625 18.332031 4.40625 C 16.84375 4 10.890625 4 10.890625 4 Z M 9.070312 7.175781 C 9.078125 7.175781 9.085938 7.175781 9.09375 7.175781 C 9.171875 7.179688 9.246094 7.199219 9.3125 7.238281 L 14.378906 10.234375 C 14.679688 10.410156 14.679688 10.847656 14.378906 11.023438 L 9.3125 14.015625 C 9.007812 14.199219 8.621094 13.976562 8.621094 13.621094 L 8.621094 7.636719 C 8.621094 7.382812 8.824219 7.179688 9.070312 7.175781 Z M 9.070312 7.175781 "/>
</g>
</svg>

<svg xmlns="http://www.w3.org/2000/svg" width="22" height="22"><g fill="#bdbdbd"><path d="M16.89 12.617a.572.572 0 0 0-.433-.058c-.035.011-.074.023-.105.043a3.167 3.167 0 0 0-2.164 3.742.566.566 0 0 0 .715.516.564.564 0 0 0 .363-.801 2.062 2.062 0 0 1 .238-1.45c.266-.46.676-.78 1.137-.933.039 0 .074-.008.113-.02a.567.567 0 0 0 .137-1.039zm0 0M17.676 18.652a.562.562 0 0 0 .539.016 3.142 3.142 0 0 0 1.816-1.445c.418-.723.52-1.543.344-2.297a.363.363 0 0 0-.02-.114.564.564 0 0 0-.695-.402.566.566 0 0 0-.363.8c.101.477.031.99-.238 1.45a2.041 2.041 0 0 1-1.137.934c-.035.004-.074.008-.11.02a.564.564 0 0 0-.402.695c.04.152.137.273.266.343zm0 0"/><path d="M10.89 4s-5.956 0-7.445.39a2.44 2.44 0 0 0-1.68 1.696c-.39 1.488-.39 4.574-.39 4.574s0 3.106.39 4.578a2.392 2.392 0 0 0 1.68 1.676c1.504.406 7.446.406 7.446.406s1.472 0 3.14-.047a3.647 3.647 0 0 1-.386-1.636 3.631 3.631 0 0 1 3.636-3.64c1.242 0 2.336.616 2.992 1.562.13-1.407.13-2.883.13-2.883s.015-3.102-.391-4.59a2.384 2.384 0 0 0-1.68-1.68C16.844 4 10.891 4 10.891 4zM9.07 7.176h.028a.476.476 0 0 1 .214.066l5.067 2.992c.3.176.3.614 0 .79l-5.066 2.992a.457.457 0 0 1-.692-.395V7.637a.46.46 0 0 1 .45-.461zm0 0"/></g></svg>
